X:233
T: Der Hammerschmiedssohn
N: Q1088D
O: Mitteleuropa, Deutschland
N: Melodievergleich zu Q0088, anderes Lied.
R: geistlich, Triller
M: 6/4
L: 1/4
K: C
c | c2cB2B | cA2G2
G | A2cB2A | G2FE2
E | E2EG2F | ED2C2
C | GAGG2G | FD2C2

